X: 1
T:Octaves test
C:Leon
M:C
L:1/4
Q:200
K:G#m
|C,, C,, D,, E,, |F,, G,, A,, B,, |C, D, E, F,|G, A, B, C|D E F G|A B c d|e f g a|b c' d' e'|f' g' a' b'|c'' d'' e'' f'' |g'' a'' b'' c''|]